!!!OTL: UND WER IM JANUAR GEBOREN IST
!!!ARE: Europa, Mitteleuropa, Deutschland, Schleswig - Holstein
!!!SCT: E1166
!!!YEM: Copyright 1995, estate of Helmut Schaffrath.
**kern
*ICvox
*Ivox
*M6/8
*k[f#]
*G:
{8d
=1
4g
8g
8g
8a
8b
=2
8.b
16a
8a
8a
8r}
{8cc
=3
4.b
8b
8r}
{16g
16b
=4
4dd
8dd
8.dd
16cc
8b
=5
4cc
8ee
8ee
8dd}
{8cc
=6
4b
8b
8.b
16a
8g
=7
8.a
16dd
8dd
4dd}
{8cc
=8
4b
8b
8.a
16g
8a
=9
4g
8ee
4dd}
{8cc
=10
4b
8b
8.a
16g
8a
=11
2g
8r}
==
!!!AGN: Trink -, Zech - Lied
!!!ONB: ESAC (Essen Associative Code) Database: ERK3
!!!AMT: compound duple
!!!AIN: vox
!!!EED: Helmut Schaffrath
!!!EEV: 1.0
*-
